Papirus-Adapta-Nokto/22x22/actions/mail-thread-ignored.svg

<svg xmlns="http://www.w3.org/2000/svg" width="22" height="22" viewBox="0 0 22 22">
 <defs>
  <style id="current-color-scheme" type="text/css">
   .ColorScheme-Text { color:#cfd8dc; } .ColorScheme-Highlight { color:#00b4cb; }
  </style>
 </defs>
 <path style="fill:currentColor" class="ColorScheme-Text" d="m8 1.0039c-3.866 0-7 3.1341-7 7 0 3.8661 3.134 7.0001 7 7.0001s7-3.134 7-7.0001c0-3.8659-3.134-7-7-7zm-4 5.9961h8v2h-8v-2z" transform="translate(3 3)"/>
</svg>

<svg xmlns="http://www.w3.org/2000/svg" width="22" height="22" version="1.1">
 <defs>
  <style id="current-color-scheme" type="text/css">
   .ColorScheme-Text { color:#dfdfdf; } .ColorScheme-Highlight { color:#4285f4; } .ColorScheme-NeutralText { color:#ff9800; } .ColorScheme-PositiveText { color:#4caf50; } .ColorScheme-NegativeText { color:#f44336; }
  </style>
 </defs>
 <g transform="translate(3,3)">
  <path style="fill:currentColor" class="ColorScheme-Text" d="M 8,1 A 7,7 0 0 0 1,8 7,7 0 0 0 8,15 7,7 0 0 0 15,8 7,7 0 0 0 8,1 Z M 4,7 H 12 V 9 H 4 Z"/>
 </g>
</svg>
